source/img/insta.svg

<svg fill="none" height="24" viewBox="0 0 24 24" width="24" xmlns="http://www.w3.org/2000/svg"><g fill="#fff"><path d="m17.5034 0h-11.00682c-3.58227 0-6.49658 2.91431-6.49658 6.49658v11.00702c0 3.5821 2.91431 6.4964 6.49658 6.4964h11.00702c3.5821 0 6.4964-2.9143 6.4964-6.4964v-11.00702c0-3.58227-2.9143-6.49658-6.4966-6.49658zm-5.5034 18.5623c-3.61853 0-6.56232-2.9438-6.56232-6.5623 0-3.61853 2.94379-6.56232 6.56232-6.56232 3.6185 0 6.5623 2.94379 6.5623 6.56232 0 3.6185-2.9438 6.5623-6.5623 6.5623zm6.7192-11.57701c-1.0693 0-1.939-.86975-1.939-1.93909 0-1.06933.8697-1.93927 1.939-1.93927 1.0694 0 1.9393.86994 1.9393 1.93927 0 1.06934-.8699 1.93909-1.9393 1.93909z"/><path d="m12.0001 6.84448c-2.84257 0-5.15537 2.31262-5.15537 5.15532 0 2.8425 2.3128 5.1554 5.15537 5.1554 2.8427 0 5.1553-2.3129 5.1553-5.1554 0-2.8427-2.3126-5.15532-5.1553-5.15532z"/><path d="m18.7186 4.51392c-.2933 0-.5321.23877-.5321.5321 0 .29334.2388.5321.5321.5321.2935 0 .5323-.23858.5323-.5321s-.2388-.5321-.5323-.5321z"/></g></svg>

<svg fill="none" height="24" width="24" xmlns="http://www.w3.org/2000/svg"><g fill="#fff"><path d="M17.503 0H6.497A6.504 6.504 0 000 6.497v11.007A6.504 6.504 0 006.497 24h11.007A6.504 6.504 0 0024 17.504V6.497A6.504 6.504 0 0017.503 0zM12 18.562A6.57 6.57 0 015.438 12 6.57 6.57 0 0112 5.438 6.57 6.57 0 0118.562 12 6.57 6.57 0 0112 18.562zm6.72-11.577c-1.07 0-1.94-.87-1.94-1.939 0-1.07.87-1.94 1.94-1.94 1.069 0 1.939.87 1.939 1.94 0 1.07-.87 1.94-1.94 1.94z"/><path d="M12 6.844A5.161 5.161 0 006.845 12 5.161 5.161 0 0012 17.155 5.161 5.161 0 0017.155 12 5.161 5.161 0 0012 6.844zm6.719-2.33a.533.533 0 10.001 1.066.533.533 0 00-.001-1.066z"/></g></svg>
